src/view/frontend/web/svg/heroicons/solid/volume-up.svg

<svg viewBox="0 0 20 20" fill="currentColor" xmlns="http://www.w3.org/2000/svg">
<path fill-rule="evenodd" clip-rule="evenodd" d="M9.38268 3.07615C9.75636 3.23093 10 3.59557 10 4.00003V16C10 16.4045 9.75636 16.7691 9.38268 16.9239C9.00901 17.0787 8.57889 16.9931 8.29289 16.7071L4.58579 13H2C1.44772 13 1 12.5523 1 12V8.00003C1 7.44774 1.44772 7.00003 2 7.00003H4.58579L8.29289 3.29292C8.57889 3.00692 9.00901 2.92137 9.38268 3.07615Z" />
<path fill-rule="evenodd" clip-rule="evenodd" d="M14.6568 2.92888C15.0474 2.53836 15.6805 2.53836 16.0711 2.92888C17.8796 4.73743 19 7.2388 19 9.99995C19 12.7611 17.8796 15.2625 16.0711 17.071C15.6805 17.4615 15.0474 17.4615 14.6568 17.071C14.2663 16.6805 14.2663 16.0473 14.6568 15.6568C16.1057 14.208 17 12.2094 17 9.99995C17 7.79053 16.1057 5.7919 14.6568 4.34309C14.2663 3.95257 14.2663 3.3194 14.6568 2.92888ZM11.8284 5.75731C12.2189 5.36678 12.8521 5.36678 13.2426 5.75731C13.7685 6.28319 14.1976 6.90687 14.5003 7.59958C14.822 8.33592 15 9.14847 15 9.99995C15 11.6565 14.3273 13.1579 13.2426 14.2426C12.8521 14.6331 12.2189 14.6331 11.8284 14.2426C11.4379 13.8521 11.4379 13.2189 11.8284 12.8284C12.5534 12.1034 13 11.1048 13 9.99995C13 9.42922 12.8811 8.8889 12.6676 8.40032C12.4663 7.93958 12.1802 7.52327 11.8284 7.17152C11.4379 6.781 11.4379 6.14783 11.8284 5.75731Z" />
</svg>

<svg xmlns="http://www.w3.org/2000/svg" fill="currentColor" viewBox="0 0 20 20"><path fill-rule="evenodd" d="M9.383 3.076A1 1 0 0 1 10 4v12a1 1 0 0 1-1.707.707L4.586 13H2a1 1 0 0 1-1-1V8a1 1 0 0 1 1-1h2.586l3.707-3.707a1 1 0 0 1 1.09-.217ZM14.657 2.929a1 1 0 0 1 1.414 0A9.972 9.972 0 0 1 19 10a9.972 9.972 0 0 1-2.929 7.071 1 1 0 0 1-1.414-1.414A7.971 7.971 0 0 0 17 10c0-2.21-.894-4.208-2.343-5.657a1 1 0 0 1 0-1.414Zm-2.829 2.828a1 1 0 0 1 1.415 0A5.983 5.983 0 0 1 15 10a5.984 5.984 0 0 1-1.757 4.243 1 1 0 0 1-1.415-1.415A3.984 3.984 0 0 0 13 10a3.983 3.983 0 0 0-1.172-2.828 1 1 0 0 1 0-1.415Z" clip-rule="evenodd"/></svg>
